X:10381
T:Marsden Hornpipe. JNu.02
M:4/4
L:1/8
Q:160
S:James Nuttall MS,c1830,Rossendale,East Lancs.
R:Hornpipe
O:England
A:East Lancashire
N:
Z:vmp.Manchester Morris Men
K:D
A2|(3def dA (3def dA|gfed cBAG|FDAD BDAD|GAFG E2 A2|!
(3def dA (3def dA|gfed cBAF|GABG EBAG|F2 D2 D2 ::!
AG|FDAD BDAD|FDAD BDAD|FAdc BAGF|G2 E2 E2 AG|!
FDAD BDAD|FDAD BDAD|(3Bcd (3cde (3def (3efg|f2 d2 d2:|]
